X: 1361
T: A Country Waltz
B: australian traditional tunes wiki
M:3/4
L:1/8
R: Waltz
Q: 1/4=100
K:D
V:1 
FE|"D"D2F2A2|A3G FE|D2F2Ad|B2A2ef|"G"g2e2eg|"D"f2d2df|"Em7"ef ed cB|"A7"AB AG FE|
"D"D2F2A2|A3G FE|D2F2Ad|B2A2ef|"G"g2e2eg|"D"f2d2df|"Em" e2B2"A7"c2|"D"d4Ad||
"D"f3e (3dcB|A3G FE|D2F2Ad|B2A2ef|"G"g3f ed|"A7"c3 d cB|A2c2e2|"G"b2"D"a2"A7"(3gag|
"D"f3e (3dcB|A3G FE|D2F2Ad|B2A2ef|"G"g3f ed|"A7"c3 d cB|A2B2c2|"D"d4z2||
% abcbook-tune_id 6342d53a1f9cc3aaa627a556


% abcbook-boost 0
% abcbook-tablature 
% abcbook-transpose 
% abcbook-lastupdated 1665324361104
% abcbook-soundfonts 
% abcbook-repeats 1
% NFF Book 2017

